images/location.svg

<svg width="24" height="24" viewBox="0 0 24 24" fill="none" xmlns="http://www.w3.org/2000/svg">
<path d="M17.8433 2.06087C16.3563 0.730435 14.2694 0 11.9998 0C9.73024 0 7.64329 0.730435 6.15633 2.06087C4.33024 3.67826 3.39111 6.10435 3.39111 9.13043C3.39111 15.6783 10.9302 23.3739 11.2694 23.687C11.4781 23.8957 11.7389 24 11.9998 24C12.2607 24 12.5476 23.8957 12.7302 23.687C13.0694 23.3739 20.6085 15.6783 20.6085 9.13043C20.6085 6.10435 19.6694 3.67826 17.8433 2.06087ZM11.9998 21.4174C11.2955 20.6348 10.1737 19.3304 9.07807 17.7652C6.73024 14.4261 5.47807 11.4522 5.47807 9.13043C5.47807 2.6087 10.4607 2.08696 11.9998 2.08696C18.052 2.08696 18.5215 7.48696 18.5215 9.13043C18.5215 13.7217 13.852 19.3826 11.9998 21.4174ZM11.9998 4.51304C9.70416 4.51304 7.85198 6.41739 7.85198 8.73913C7.85198 11.0609 9.70416 12.9391 11.9998 12.9391C14.2955 12.9391 16.1476 11.0348 16.1476 8.71304C16.1476 6.3913 14.2955 4.51304 11.9998 4.51304ZM11.9998 11.113C10.7215 11.113 9.67807 10.0435 9.67807 8.71304C9.67807 7.38261 10.7215 6.31304 11.9998 6.31304C13.2781 6.31304 14.3215 7.38261 14.3215 8.71304C14.3215 10.0435 13.2781 11.113 11.9998 11.113Z" fill="#F7931E"/>
</svg>

<svg width="24" height="24" fill="none" xmlns="http://www.w3.org/2000/svg"><path d="M17.843 2.06C16.356.73 14.27 0 12 0 9.73 0 7.643.73 6.156 2.06 4.33 3.679 3.391 6.105 3.391 9.13c0 6.548 7.54 14.244 7.878 14.557.21.209.47.313.73.313.262 0 .549-.104.731-.313.34-.313 7.878-8.009 7.878-14.557 0-3.026-.939-5.452-2.765-7.07ZM12 21.418a39.066 39.066 0 0 1-2.922-3.652c-2.348-3.339-3.6-6.313-3.6-8.635 0-6.521 4.983-7.043 6.522-7.043 6.052 0 6.521 5.4 6.521 7.043 0 4.592-4.669 10.253-6.521 12.287Zm0-16.904c-2.296 0-4.148 1.904-4.148 4.226s1.852 4.2 4.148 4.2c2.296 0 4.148-1.904 4.148-4.226s-1.852-4.2-4.148-4.2Zm0 6.6c-1.278 0-2.322-1.07-2.322-2.4 0-1.33 1.043-2.4 2.322-2.4 1.278 0 2.322 1.07 2.322 2.4 0 1.33-1.044 2.4-2.322 2.4Z" fill="#F7931E"/></svg>
